!!!OTL-incipit: DE KUCKUK UP DEN TUNE SAT
!!!ARE: Europa, Mitteleuropa, Deutschland, Westfalen
!!!SCT: Z0140
!!!YEM: Copyright 1995, estate of Helmut Schaffrath.
**kern	**text
*ICvox	*
*M2/4	*
*k[b-e-]	*
*B-:	*
!LO:TX:a:t=Weſtphäliſch.	!
{8dd	De
=1	=1
8cc	Kuk-
8b-	-kuk
8a	up
8b-/	den
=2	=2
4cc	Tu-
4dd	-ne
=3	=3
4b-/	ſat,
8r}	.
{8dd	Na
=4	=4
8cc	Re-
8b-	-gen
8a	fol-
8b-/	-get
=5	=5
4cc	Son-
4dd	-nen-
=6	=6
4b-/	-ſchien,
8r}	.
{8f	et
=7	=7
16b-	reg-
16b-	-net
8cc	'n
8dd	Schuer
8ee-	und
=8	=8
8ff	dat
16ffL	ward
16eenJ	.
4ff	natt,
=9	=9
8ff	dat
16ggL	ward
16eenJ	.
8ff}	natt,
{8dd	et
=10	=10
16cc	reg-
16cc	-net
8b-/	'n
8a	Schuer
8b-/	und
=11	=11
4cc	dat
4dd	ward
=12	=12
4b-	natt.
8r}	.
{8f	da
=13	=13
16b-	ward
16b-	.
8cc	de
8dd	Kuk-
8ee-	-kuk
=14	=14
8ff	ſchön
16ffL	un
16eenJ	.
4ff	ſien,
=15	=15
8ff	ſchön
16ggL	un
16eenJ	.
8ff}	ſien,
{8dd	da
=16	=16
16cc	ward
16cc	.
8b-/	de
8a	Kuk-
8b-/	-kuk
=17	=17
4cc	ſchön
4dd	un
=18	=18
4b-	ſien.
8r}	.
==	==
!!!AGN: Erzaehlung, lustige Romanze
!!!ONB: ESAC (Essen Associative Code) Database: ZUCCAL
!!!AMT: simple duple
!!!AIN: vox
!!!EED: Helmut Schaffrath
!!!EEV: 1.0
!!!GTL: II. Erzahlungen, lustige Romanzen, Kinder-Lieder und episch-lyrische Volks-Lieder.
!!!URL-scan: https://www.digitale-sammlungen.de/de/view/bsb11160571?page=264
!!!ENC: Anna Maria Matuszewska
!!!EEV: 2025/01/28
*-	*-
